apps/symbolic/gnome-power-manager-symbolic.svg

<?xml version="1.0" encoding="UTF-8" standalone="no"?>
<svg
   xmlns:dc="http://purl.org/dc/elements/1.1/"
   xmlns:cc="http://creativecommons.org/ns#"
   xmlns:rdf="http://www.w3.org/1999/02/22-rdf-syntax-ns#"
   xmlns:svg="http://www.w3.org/2000/svg"
   xmlns="http://www.w3.org/2000/svg"
   xmlns:sodipodi="http://sodipodi.sourceforge.net/DTD/sodipodi-0.dtd"
   xmlns:inkscape="http://www.inkscape.org/namespaces/inkscape"
   version="1.1"
   width="24"
   height="24"
   viewBox="0 0 24 24"
   id="svg2"
   inkscape:version="0.92.1 r15371"
   sodipodi:docname="gnome-power-manager-symbolic.svg">
  <metadata
     id="metadata10">
    <rdf:RDF>
      <cc:Work
         rdf:about="">
        <dc:format>image/svg+xml</dc:format>
        <dc:type
           rdf:resource="http://purl.org/dc/dcmitype/StillImage" />
      </cc:Work>
    </rdf:RDF>
  </metadata>
  <defs
     id="defs8" />
  <sodipodi:namedview
     pagecolor="#ffffff"
     bordercolor="#666666"
     borderopacity="1"
     objecttolerance="10"
     gridtolerance="10"
     guidetolerance="10"
     inkscape:pageopacity="0"
     inkscape:pageshadow="2"
     inkscape:window-width="640"
     inkscape:window-height="480"
     id="namedview6"
     showgrid="false"
     inkscape:zoom="25.291667"
     inkscape:cx="4.9621087"
     inkscape:cy="12"
     inkscape:current-layer="svg2" />
  <path
     d="M 11.571429,14.571429 H 4.7142857 V 6.8571429 H 11.571429 M 12.145714,5.1428571 H 10.714286 V 3.4285715 H 5.5714286 V 5.1428571 H 4.14 a 1.14,1.14 0 0 0 -1.14,1.14 V 19.431429 c 0,0.625714 0.5142857,1.14 1.14,1.14 h 8.005714 c 0.625715,0 1.14,-0.514286 1.14,-1.14 V 6.2828571 a 1.14,1.14 0 0 0 -1.14,-1.14 M 21,11.142858 H 18.428571 V 5.1428571 l -4.285714,8.5714289 h 2.571429 v 6.857143 z"
     id="path4"
     style="fill:#bebebe;fill-opacity:1;stroke-width:0.85714287"
     inkscape:connector-curvature="0" />
</svg>

<svg xmlns="http://www.w3.org/2000/svg" viewBox="0 0 24 24">
  <path fill="#bebebe" d="M11.571 14.571H4.714V6.857h6.857m.575-1.714h-1.432V3.429H5.571v1.714H4.14A1.14 1.14 0 0 0 3 6.283V19.43c0 .626.514 1.14 1.14 1.14h8.006c.625 0 1.14-.514 1.14-1.14V6.283a1.14 1.14 0 0 0-1.14-1.14m8.854 6h-2.571v-6l-4.286 8.571h2.571v6.857z"/>
</svg>
